src/icons/coin/bitcoin.svg

<svg viewBox="0 0 16 16" fill="none" xmlns="http://www.w3.org/2000/svg">
  <circle cx="8" cy="8" r="8" fill="#F7931A"/>
  <path d="M11.5267 6.86022C11.6859 5.7956 10.8754 5.22332 9.76706 4.84156L10.1266 3.39943L9.24875 3.18068L8.89874 4.58484C8.66795 4.52728 8.43094 4.47305 8.19539 4.41928L8.54794 3.00585L7.67062 2.78711L7.31087 4.22877C7.11989 4.18529 6.93231 4.14231 6.75032 4.09703L6.75134 4.09249L5.54074 3.79019L5.30722 4.7278C5.30722 4.7278 5.95852 4.8771 5.9448 4.88629C6.30028 4.97502 6.36457 5.21034 6.35389 5.39686L5.94433 7.03979C5.96881 7.046 6.00056 7.055 6.03559 7.06907C6.00631 7.0618 5.97514 7.05386 5.9428 7.04612L5.36873 9.34762C5.32528 9.45562 5.21501 9.61771 4.96647 9.55616C4.97527 9.56891 4.32842 9.39693 4.32842 9.39693L3.89258 10.4018L5.03498 10.6866C5.24751 10.7399 5.45577 10.7957 5.66087 10.8481L5.2976 12.3068L6.17445 12.5255L6.5342 11.0823C6.77375 11.1473 7.00622 11.2073 7.2338 11.2639L6.87526 12.7003L7.75317 12.919L8.1164 11.4631C9.61335 11.7464 10.7389 11.6322 11.2127 10.2782C11.5945 9.18804 11.1937 8.55926 10.4062 8.14922C10.9798 8.01694 11.4118 7.63967 11.527 6.86034L11.5267 6.86015L11.5267 6.86022ZM9.52099 9.67276C9.24969 10.7629 7.41426 10.1736 6.81918 10.0258L7.30125 8.09334C7.89628 8.2419 9.80452 8.53588 9.52103 9.67276H9.52099ZM9.79248 6.84443C9.545 7.83601 8.01735 7.33224 7.52179 7.20871L7.95885 5.45606C8.45441 5.57959 10.0503 5.81014 9.79256 6.84443H9.79248Z" fill="white"/>
</svg>

<svg viewBox="0 0 16 16" fill="none" xmlns="http://www.w3.org/2000/svg"><g clip-path="url(#a)"><path d="M15.759 9.935a7.998 7.998 0 1 1-15.52-3.87 7.998 7.998 0 0 1 15.52 3.87z" fill="#F7931A"/><path d="M11.527 6.86c.159-1.064-.652-1.637-1.76-2.018l.36-1.443-.878-.218-.35 1.404c-.231-.058-.468-.112-.704-.166l.353-1.413-.877-.219-.36 1.442a29.013 29.013 0 0 1-.56-.132v-.005l-1.21-.302-.234.938s.652.15.638.158c.355.089.42.324.409.51l-.41 1.644a.713.713 0 0 1 .092.03l-.093-.024-.574 2.302c-.044.108-.154.27-.403.208.01.013-.638-.16-.638-.16l-.435 1.006 1.142.285c.213.053.42.109.626.161l-.363 1.459.876.218.36-1.443c.24.065.472.125.7.182L6.875 12.7l.878.219.363-1.456c1.497.283 2.623.17 3.097-1.185.382-1.09-.02-1.719-.807-2.129.574-.132 1.006-.51 1.121-1.289zM9.52 9.673c-.271 1.09-2.107.5-2.702.353l.482-1.933c.595.149 2.504.443 2.22 1.58zm.271-2.829c-.247.992-1.775.488-2.27.365l.437-1.753c.495.124 2.091.354 1.834 1.388z" fill="#fff"/></g><defs><clipPath id="a"><path fill="#fff" d="M0 0h15.998v16H0z"/></clipPath></defs></svg>
